X: 2843
T: Barbra's
R: jig
M: 6/8
K: Dmajor
D|{c}G3 d3|{c}B2 A BAG|{c}E2 A {c}A2 {D}A|{c}E{G}E{A}E {c}FED|
{c}G3 d3|{c}B2 A BAG|{c}E2 A {c}AGE|{c}G3 {D}G2:|
D|{c}G3 {c}GDG|{c}GDG {c}BAG|{c}E2 A {c}A2 {D}A|{c}E{G}E{A}E {c}FED|
{c}G3 {c}GDG|{c}GDG {c}BAG|{c}E2 A {c}AGE|{c}G3 {D}G2:|

